images/icons/facebook.svg

<?xml version="1.0" encoding="utf-8"?>
<!-- Generator: Adobe Illustrator 24.1.2, SVG Export Plug-In . SVG Version: 6.00 Build 0)  -->
<svg version="1.1" id="Слой_1" xmlns="http://www.w3.org/2000/svg" xmlns:xlink="http://www.w3.org/1999/xlink" x="0px" y="0px"
	 viewBox="0 0 32 32" style="enable-background:new 0 0 32 32;" xml:space="preserve">
<style type="text/css">
	.st0{fill-rule:evenodd;clip-rule:evenodd;fill:#444A34;}
</style>
<path class="st0" d="M0,16C0,7.2,7.2,0,16,0s16,7.2,16,16s-7.2,16-16,16S0,24.8,0,16z M16,8c4.4,0,8,3.6,8,8c0,4-2.9,7.4-6.9,8v-5.7
	H19l0.4-2.3h-2.2v-1.5c0-0.6,0.3-1.2,1.3-1.2h1v-2c0,0-0.9-0.2-1.8-0.2c-1.8,0-3,1.1-3,3.1V16h-2v2.3h2v5.6C10.9,23.3,8,20,8,16
	C8,11.6,11.6,8,16,8z"/>
</svg>

<svg width="32" height="32" viewBox="0 0 32 32" fill="none" xmlns="http://www.w3.org/2000/svg">
<path fill-rule="evenodd" clip-rule="evenodd" d="M0 16C0 7.16344 7.16344 0 16 0C24.8366 0 32 7.16344 32 16C32 24.8366 24.8366 32 16 32C7.16344 32 0 24.8366 0 16ZM16 8C20.4 8 24 11.6 24 16C24 20 21.1 23.4 17.1 24V18.3H19L19.4 16H17.2V14.5C17.2 13.9 17.5 13.3 18.5 13.3H19.5V11.3C19.5 11.3 18.6 11.1 17.7 11.1C15.9 11.1 14.7 12.2 14.7 14.2V16H12.7V18.3H14.7V23.9C10.9 23.3 8 20 8 16C8 11.6 11.6 8 16 8Z" fill="black"/>
</svg>
